src/assets/aboutPage/diversityIcon.svg

<svg width="77" height="77" viewBox="0 0 77 77" fill="none" xmlns="http://www.w3.org/2000/svg">
<mask id="path-1-outside-1" maskUnits="userSpaceOnUse" x="18" y="13" width="45" height="46" fill="black">
<rect fill="white" x="18" y="13" width="45" height="46"/>
<path fill-rule="evenodd" clip-rule="evenodd" d="M37.6582 17.0316L29.663 30.0991C28.7818 31.5176 29.8134 33.3659 31.4899 33.3659H47.4588C49.1352 33.3659 50.1668 31.5176 49.2856 30.0991L41.3119 17.0316C40.4737 15.6561 38.4964 15.6561 37.6582 17.0316ZM51.4002 38.0912C48.3277 38.0912 45.4887 39.7303 43.9525 42.3911C42.4163 45.0519 42.4163 48.3302 43.9525 50.9909C45.4887 53.6517 48.3277 55.2909 51.4002 55.2909C54.4726 55.2909 57.3116 53.6517 58.8478 50.9909C60.3841 48.3302 60.3841 45.0519 58.8478 42.3911C57.3116 39.7303 54.4726 38.0912 51.4002 38.0912ZM35.4848 55.091H23.0693C21.9312 55.091 21 54.1599 21 53.0218V40.6062C21 39.4681 21.9312 38.537 23.0693 38.537H35.4848C36.6229 38.537 37.5541 39.4681 37.5541 40.6062V53.0218C37.5541 54.1599 36.6229 55.091 35.4848 55.091Z"/>
</mask>
<path fill-rule="evenodd" clip-rule="evenodd" d="M37.6582 17.0316L29.663 30.0991C28.7818 31.5176 29.8134 33.3659 31.4899 33.3659H47.4588C49.1352 33.3659 50.1668 31.5176 49.2856 30.0991L41.3119 17.0316C40.4737 15.6561 38.4964 15.6561 37.6582 17.0316ZM51.4002 38.0912C48.3277 38.0912 45.4887 39.7303 43.9525 42.3911C42.4163 45.0519 42.4163 48.3302 43.9525 50.9909C45.4887 53.6517 48.3277 55.2909 51.4002 55.2909C54.4726 55.2909 57.3116 53.6517 58.8478 50.9909C60.3841 48.3302 60.3841 45.0519 58.8478 42.3911C57.3116 39.7303 54.4726 38.0912 51.4002 38.0912ZM35.4848 55.091H23.0693C21.9312 55.091 21 54.1599 21 53.0218V40.6062C21 39.4681 21.9312 38.537 23.0693 38.537H35.4848C36.6229 38.537 37.5541 39.4681 37.5541 40.6062V53.0218C37.5541 54.1599 36.6229 55.091 35.4848 55.091Z" fill="white" fill-opacity="0.54"/>
<path d="M29.663 30.0991L32.2113 31.6821L32.2167 31.6735L32.222 31.6648L29.663 30.0991ZM37.6582 17.0316L40.2172 18.5974L40.22 18.5928L37.6582 17.0316ZM49.2856 30.0991L46.7248 31.6617L46.731 31.6719L46.7373 31.6821L49.2856 30.0991ZM41.3119 17.0316L38.7501 18.5928L38.751 18.5943L41.3119 17.0316ZM43.9525 50.9909L46.5506 49.4909L43.9525 50.9909ZM58.8478 50.9909L56.2498 49.4909V49.491L58.8478 50.9909ZM58.8478 42.3911L56.2498 43.8911V43.8911L58.8478 42.3911ZM32.222 31.6648L40.2172 18.5974L35.0992 15.4659L27.104 28.5334L32.222 31.6648ZM31.4899 30.3659C32.1485 30.3659 32.5808 31.0873 32.2113 31.6821L27.1147 28.516C24.9828 31.9478 27.4784 36.3659 31.4899 36.3659V30.3659ZM47.4588 30.3659H31.4899V36.3659H47.4588V30.3659ZM46.7373 31.6821C46.3678 31.0873 46.8001 30.3659 47.4588 30.3659V36.3659C51.4703 36.3659 53.9659 31.9478 51.834 28.516L46.7373 31.6821ZM38.751 18.5943L46.7248 31.6617L51.8465 28.5364L43.8728 15.469L38.751 18.5943ZM40.22 18.5928C39.8891 19.1357 39.081 19.1357 38.7501 18.5928L43.8738 15.4705C41.8664 12.1765 37.1037 12.1765 35.0964 15.4705L40.22 18.5928ZM46.5506 43.8911C47.5509 42.1585 49.3995 41.0912 51.4002 41.0912V35.0912C47.256 35.0912 43.4265 37.3021 41.3544 40.8911L46.5506 43.8911ZM46.5506 49.4909C45.5503 47.7584 45.5503 45.6237 46.5506 43.8911L41.3544 40.8911C39.2823 44.4801 39.2823 48.902 41.3544 52.4909L46.5506 49.4909ZM51.4002 52.2909C49.3995 52.2909 47.5509 51.2235 46.5506 49.4909L41.3544 52.4909C43.4265 56.0799 47.256 58.2909 51.4002 58.2909V52.2909ZM56.2498 49.491C55.2495 51.2235 53.4008 52.2909 51.4002 52.2909V58.2909C55.5444 58.2909 59.3738 56.0799 61.4459 52.4909L56.2498 49.491ZM56.2498 43.8911C57.2501 45.6237 57.2501 47.7584 56.2498 49.4909L61.4459 52.491C63.518 48.902 63.518 44.4801 61.4459 40.8911L56.2498 43.8911ZM51.4002 41.0912C53.4008 41.0912 55.2495 42.1585 56.2498 43.8911L61.4459 40.8911C59.3738 37.3021 55.5444 35.0912 51.4002 35.0912V41.0912ZM23.0693 58.091H35.4848V52.091H23.0693V58.091ZM18 53.0218C18 55.8167 20.2743 58.091 23.0693 58.091V52.091C23.588 52.091 24 52.503 24 53.0218H18ZM18 40.6062V53.0218H24V40.6062H18ZM23.0693 35.537C20.2743 35.537 18 37.8113 18 40.6062H24C24 41.125 23.588 41.537 23.0693 41.537V35.537ZM35.4848 35.537H23.0693V41.537H35.4848V35.537ZM40.5541 40.6062C40.5541 37.8113 38.2797 35.537 35.4848 35.537V41.537C34.966 41.537 34.5541 41.125 34.5541 40.6062H40.5541ZM40.5541 53.0218V40.6062H34.5541V53.0218H40.5541ZM35.4848 58.091C38.2797 58.091 40.5541 55.8167 40.5541 53.0218H34.5541C34.5541 52.503 34.966 52.091 35.4848 52.091V58.091Z" fill="#EB850E" mask="url(#path-1-outside-1)"/>
<path fill-rule="evenodd" clip-rule="evenodd" d="M5.20718 5.20718C7.2607 3.15366 10.0459 2 12.95 2H23.9C25.9158 2 27.55 3.63416 27.55 5.65C27.55 7.66584 25.9158 9.3 23.9 9.3H12.95C11.982 9.3 11.0536 9.68455 10.3691 10.3691C9.68455 11.0536 9.3 11.982 9.3 12.95V23.9C9.3 25.9158 7.66584 27.55 5.65 27.55C3.63416 27.55 2 25.9158 2 23.9V12.95C2 10.0459 3.15366 7.2607 5.20718 5.20718ZM49.45 5.65C49.45 3.63416 51.0842 2 53.1 2H64.05C66.9541 2 69.7393 3.15366 71.7928 5.20718C73.8463 7.2607 75 10.0459 75 12.95V23.9C75 25.9158 73.3658 27.55 71.35 27.55C69.3342 27.55 67.7 25.9158 67.7 23.9V12.95C67.7 11.982 67.3155 11.0536 66.6309 10.3691C65.9464 9.68455 65.018 9.3 64.05 9.3H53.1C51.0842 9.3 49.45 7.66584 49.45 5.65ZM5.65 49.45C7.66584 49.45 9.3 51.0842 9.3 53.1V64.05C9.3 65.018 9.68455 65.9464 10.3691 66.6309C11.0536 67.3155 11.982 67.7 12.95 67.7H23.9C25.9158 67.7 27.55 69.3342 27.55 71.35C27.55 73.3658 25.9158 75 23.9 75H12.95C10.0459 75 7.2607 73.8463 5.20718 71.7928C3.15366 69.7393 2 66.9541 2 64.05V53.1C2 51.0842 3.63416 49.45 5.65 49.45ZM71.35 49.45C73.3658 49.45 75 51.0842 75 53.1V64.05C75 66.9541 73.8463 69.7393 71.7928 71.7928C69.7393 73.8463 66.9541 75 64.05 75H53.1C51.0842 75 49.45 73.3658 49.45 71.35C49.45 69.3342 51.0842 67.7 53.1 67.7H64.05C65.018 67.7 65.9464 67.3155 66.6309 66.6309C67.3155 65.9464 67.7 65.018 67.7 64.05V53.1C67.7 51.0842 69.3342 49.45 71.35 49.45Z" fill="#EB850E" stroke="white" stroke-width="3" stroke-linecap="round" stroke-linejoin="round"/>
</svg>

<svg width="77" height="77" fill="none" xmlns="http://www.w3.org/2000/svg"><mask id="prefix__a" maskUnits="userSpaceOnUse" x="18" y="13" width="45" height="46" fill="#000"><path fill="#fff" d="M18 13h45v46H18z"/><path fill-rule="evenodd" clip-rule="evenodd" d="M37.658 17.032l-7.995 13.067c-.881 1.419.15 3.267 1.827 3.267h15.969c1.676 0 2.708-1.848 1.827-3.267l-7.974-13.067a2.133 2.133 0 00-3.654 0zM51.4 38.092a8.6 8.6 0 100 17.199 8.6 8.6 0 000-17.2zM35.485 55.09H23.069A2.075 2.075 0 0121 53.021V40.607c0-1.138.931-2.069 2.07-2.069h12.415c1.138 0 2.07.931 2.07 2.07v12.415c0 1.138-.932 2.069-2.07 2.069z"/></mask><path fill-rule="evenodd" clip-rule="evenodd" d="M37.658 17.032l-7.995 13.067c-.881 1.419.15 3.267 1.827 3.267h15.969c1.676 0 2.708-1.848 1.827-3.267l-7.974-13.067a2.133 2.133 0 00-3.654 0zM51.4 38.092a8.6 8.6 0 100 17.199 8.6 8.6 0 000-17.2zM35.485 55.09H23.069A2.075 2.075 0 0121 53.021V40.607c0-1.138.931-2.069 2.07-2.069h12.415c1.138 0 2.07.931 2.07 2.07v12.415c0 1.138-.932 2.069-2.07 2.069z" fill="#fff" fill-opacity=".54"/><path d="M29.663 30.1l2.548 1.582.006-.008.005-.01-2.559-1.565zm7.995-13.068l2.56 1.565.002-.004-2.562-1.561zm11.628 13.067l-2.561 1.563.006.01.006.01 2.549-1.583zm-7.974-13.067l-2.562 1.56.001.002 2.56-1.562zm2.64 33.959l2.599-1.5-2.599 1.5zm14.896 0l-2.598-1.5 2.598 1.5zm0-8.6l-2.598 1.5 2.598-1.5zM32.222 31.665l7.995-13.068-5.118-3.131-7.995 13.067 5.118 3.132zm-.732-1.3c.659 0 1.09.722.721 1.317l-5.096-3.166c-2.132 3.432.363 7.85 4.375 7.85v-6zm15.969 0h-15.97v6h15.97v-6zm-.722 1.317a.855.855 0 01.722-1.316v6c4.011 0 6.507-4.418 4.375-7.85l-5.097 3.166zm-7.986-13.088l7.974 13.068 5.121-3.126-7.973-13.067-5.122 3.125zm1.469-.001a.867.867 0 01-1.47 0l5.124-3.123c-2.008-3.293-6.77-3.293-8.778 0l5.124 3.123zm6.33 25.298a5.6 5.6 0 014.85-2.8v-6a11.6 11.6 0 00-10.046 5.8l5.197 3zm0 5.6a5.6 5.6 0 010-5.6l-5.196-3a11.6 11.6 0 000 11.6l5.197-3zm4.85 2.8a5.6 5.6 0 01-4.85-2.8l-5.196 3a11.6 11.6 0 0010.046 5.8v-6zm4.85-2.8a5.6 5.6 0 01-4.85 2.8v6a11.6 11.6 0 0010.046-5.8l-5.196-3zm0-5.6a5.6 5.6 0 010 5.6l5.196 3a11.6 11.6 0 000-11.6l-5.196 3zm-4.85-2.8a5.6 5.6 0 014.85 2.8l5.196-3a11.6 11.6 0 00-10.046-5.8v6zm-28.33 17h12.415v-6H23.069v6zM18 53.021a5.075 5.075 0 005.07 5.07v-6c.518 0 .93.412.93.93h-6zm0-12.415v12.416h6V40.606h-6zm5.07-5.069a5.075 5.075 0 00-5.07 5.07h6c0 .518-.412.93-.93.93v-6zm12.415 0H23.069v6h12.416v-6zm5.07 5.07a5.075 5.075 0 00-5.07-5.07v6a.925.925 0 01-.93-.93h6zm0 12.415V40.606h-6v12.416h6zm-5.07 5.069a5.075 5.075 0 005.07-5.07h-6c0-.518.411-.93.93-.93v6z" fill="#EB850E" mask="url(#prefix__a)"/><path fill-rule="evenodd" clip-rule="evenodd" d="M5.207 5.207A10.95 10.95 0 0112.95 2H23.9a3.65 3.65 0 010 7.3H12.95a3.65 3.65 0 00-3.65 3.65V23.9a3.65 3.65 0 01-7.3 0V12.95a10.95 10.95 0 013.207-7.743zm44.243.443A3.65 3.65 0 0153.1 2h10.95A10.95 10.95 0 0175 12.95V23.9a3.65 3.65 0 01-7.3 0V12.95a3.65 3.65 0 00-3.65-3.65H53.1a3.65 3.65 0 01-3.65-3.65zm-43.8 43.8A3.65 3.65 0 019.3 53.1v10.95a3.65 3.65 0 003.65 3.65H23.9a3.65 3.65 0 010 7.3H12.95A10.95 10.95 0 012 64.05V53.1a3.65 3.65 0 013.65-3.65zm65.7 0A3.65 3.65 0 0175 53.1v10.95A10.95 10.95 0 0164.05 75H53.1a3.65 3.65 0 010-7.3h10.95a3.65 3.65 0 003.65-3.65V53.1a3.65 3.65 0 013.65-3.65z" fill="#EB850E" stroke="#fff" stroke-width="3" stroke-linecap="round" stroke-linejoin="round"/></svg>
